X: 1724
T: Moonlight Jig
B: australian traditional tunes wiki
M:6/8
L:1/8
R: Jig
Q: 3/8=100
K:G
V:1 
Bc|:"G"d>dd "C"c3|"Am"c>cc "D7"A>FD|"G"D>GG G>GG|"Em"B>AG "D7"A>Bc|
"G"d>dd "C"c3|"Am"c>cc "D7"A>FD|"G"D>GG "D7"F>GA|"G"B>GG G>Bc:|
|:"G"g>fg "Bm"d>Bd|"C"e>dc "G"B>cd|"Am"e>AA e>AA|"Em"B3Bcd|
"G"g>fg "Bm"d>Bd|"C"e>dc "G"B>cd|"C"e2d "D"def|"G"g3z3||
NOTES 
Joe Cashmere plays this version of an Irish jig "The Trip To The Cottage". His version is simpler and 
suits the style of Australian dancing better. It is included here as it is a crossover between the 
Aussie and modern Irish traditions.
% abcbook-tune_id 6342d53a3f331760635544ab


% abcbook-boost 0
% abcbook-tablature 
% abcbook-transpose 
% abcbook-lastupdated 1665324380196
% abcbook-soundfonts 
% abcbook-repeats 1
% NFF Book 2008
%%begintext align
%%endtext

